src/client/web-contents/img/common/badge/badge_member_01.svg

<svg height="36" viewBox="0 0 80 36" width="80" xmlns="http://www.w3.org/2000/svg"><g fill="none" fill-rule="evenodd"><rect fill="#56459f" height="36" rx="18" width="80"/><path d="m23.3999996 11h2.72l4.22 10.76 4.2-10.76h2.66l-5.82 14.1h-2.16zm16.34 0h2.46v14h-2.46zm11.52 7.28c.933338 0 1.6699973-.233331 2.21-.7s.81-1.066663.81-1.8v-.04c0-.8266708-.2733306-1.4499979-.82-1.87s-1.2799954-.63-2.2-.63h-2.86v5.04zm-5.32-7.28h5.52c.8133374 0 1.5499967.1099989 2.21.33s1.2199977.5366646 1.68.95.8133321.9066638 1.06 1.48.37 1.2133298.37 1.92v.04c0 .7866706-.1466652 1.4766637-.44 2.07s-.6933308 1.089998-1.2 1.49-1.0999966.7033323-1.78.91-1.4066628.31-2.18.31h-2.78v4.5h-2.46z" fill="#fff"/></g></svg>

<?xml version="1.0" encoding="UTF-8" standalone="no"?>
<svg width="80px" height="36px" viewBox="0 0 80 36" version="1.1" xmlns="http://www.w3.org/2000/svg" xmlns:xlink="http://www.w3.org/1999/xlink">
    <!-- Generator: Sketch 50.2 (55047) - http://www.bohemiancoding.com/sketch -->
    <title>graphic_badge_member_01</title>
    <desc>Created with Sketch.</desc>
    <defs></defs>
    <g id="Icon_Badge_Graphic" stroke="none" stroke-width="1" fill="none" fill-rule="evenodd">
        <g id="##Element/Badge/Member01">
            <rect id="Rectangle-2" fill="#56459F" x="0" y="0" width="80" height="36" rx="18"></rect>
            <path d="M23.3999996,11 L26.1199996,11 L30.3399996,21.76 L34.5399996,11 L37.1999996,11 L31.3799996,25.1 L29.2199996,25.1 L23.3999996,11 Z M39.7399996,11 L42.1999996,11 L42.1999996,25 L39.7399996,25 L39.7399996,11 Z M51.2599996,18.28 C52.1933376,18.28 52.9299969,18.046669 53.4699996,17.58 C54.0100023,17.113331 54.2799996,16.513337 54.2799996,15.78 L54.2799996,15.74 C54.2799996,14.9133292 54.006669,14.2900021 53.4599996,13.87 C52.9133302,13.4499979 52.1800042,13.24 51.2599996,13.24 L48.3999996,13.24 L48.3999996,18.28 L51.2599996,18.28 Z M45.9399996,11 L51.4599996,11 C52.273337,11 53.0099963,11.1099989 53.6699996,11.33 C54.3300029,11.5500011 54.8899973,11.8666646 55.3499996,12.28 C55.8100019,12.6933354 56.1633317,13.1866638 56.4099996,13.76 C56.6566675,14.3333362 56.7799996,14.9733298 56.7799996,15.68 L56.7799996,15.72 C56.7799996,16.5066706 56.6333344,17.1966637 56.3399996,17.79 C56.0466648,18.3833363 55.6466688,18.879998 55.1399996,19.28 C54.6333304,19.680002 54.040003,19.9833323 53.3599996,20.19 C52.6799962,20.3966677 51.9533368,20.5 51.1799996,20.5 L48.3999996,20.5 L48.3999996,25 L45.9399996,25 L45.9399996,11 Z" id="VIP" fill="#FFFFFF"></path>
        </g>
    </g>
</svg>
